!!!COM: Haydn, Franz Joseph
!!!OPR: String Quartet in B-flat Major
!!!ONM: Opus 50, No. 1
!!!OTL: Affettuoso 
!!!OMV: 4
!!!SCT: H III:44
!!!SCA: Thematisch-bibliographisches Werkevererzeichnis (A. van Hoboken)
!!!YOR: Richault Edition, volume 6
!!!EED: Frances Bennion
!!!ENC: Frances Bennion
!!!CDT: 1732/3/31/-1809/5/31/
!!!OCY: Österreich
!!!YEC: Copyright (c) 1994, 2000 Center for Computer Assisted Research in the Humanities
!!!YEM: Rights to all derivative editions reserved.
!!!YEM: Refer to licensing agreement for further details.
!!!YEN: United States of America
**kern	**kern	**kern	**kern
*k[b-e-]	*k[b-e-]	*k[b-e-]	*k[b-e-]
*B-:	*B-:	*B-:	*B-:
*clefF	*clefF	*clefC3	*clefF4
*M2/4	*M2/4	*M2/4	*M2/4
*tb32	*tb32	*tb32	*tb32
=1	=1	=1	=1
4ff	8r	8r	4BB-
.	8B-	8D	.
8dd	8d	8B-	4r
8b-	8f	8d	.
=2	=2	=2	=2
8f	8r	8r	4BB-
8b-	8B-	8D	.
8b-	8d	8B-	4r
8b-	8f	8d	.
=3	=3	=3	=3
8cc	8r	8r	4F
8cc	8c	8A	.
8cc	8e-	8c	4r
8cc	8a	8e-	.
=4	=4	=4	=4
16dd	8r	8r	4BB-
16ee-	.	.	.
16dd	8d	8B-	.
16cc	.	.	.
16b-	8f	8d	4r
16cc	.	.	.
16dd	8d	8B-	.
16ee-	.	.	.
=5	=5	=5	=5
4ff	8r	8r	4BB-
.	8B-	8D	.
8dd	8d	8B-	4r
8b-	8f	8d	.
=6	=6	=6	=6
8f	8r	8r	4B-
8b-	8B-	8D	.
8b-	8d	8B-	4r
8b-	8f	8d	.
=7	=7	=7	=7
8cc	8r	8r	4F
8cc	8c	8A	.
16cc	8e-	8c	4r
16ee-	.	.	.
16dd	8a	8e-	.
16cc	.	.	.
=8	=8	=8	=8
4b-	8b-	4d	4BB-
.	8f	.	.
4r	8b-	4r	4r
.	8dd	.	.
=9	=9	=9	=9
2r	4ff	8r	8r
.	.	8D	8BB-
.	8dd	8F	8D
.	8b-	8B-	8F
=10	=10	=10	=10
8r	8f	2d	4B-
8bb-	8b-	.	.
8bb-	8b-	.	4G
8bb-	8b-	.	.
=11	=11	=11	=11
16bb-	8cc	2e-	2F
16ccc	.	.	.
16bb-	8cc	.	.
16ccc	.	.	.
8aa	8cc	.	.
8ff	8cc	.	.
=12	=12	=12	=12
4ddd	16dd	4d	4BB-
.	16ee-	.	.
.	16dd	.	.
.	16cc	.	.
4r	16b-	4r	4r
.	16cc	.	.
.	16dd	.	.
.	16ee-	.	.
=13	=13	=13	=13
2r	4ff	8r	8r
.	.	8D	8BB-
.	8dd	8F	8D
.	8b-	8B-	8F
=14	=14	=14	=14
8r	8f	2d	4B-
8bb-	8b-	.	.
8bb-	8b-	.	4G
8bb-	8b-	.	.
=15	=15	=15	=15
16bb-	8cc	2e-	2F
16ccc	.	.	.
16bb-	8cc	.	.
16ccc	.	.	.
8aa	16cc	.	.
.	16ee-	.	.
8ff	16dd	.	.
.	16cc	.	.
=16	=16	=16	=16
4bb-	4b-	4d	4BB-
4r	4r	4r	4r
=17	=17	=17	=17
8cc	2e- 2a	2f	2r
8cc	.	.	.
16cc	.	.	.
16ee-	.	.	.
16dd	.	.	.
16cc	.	.	.
=18	=18	=18	=18
4b-	4d 4b-	4d	4f
4r	4r	4r	8d
.	.	.	8B-
=19	=19	=19	=19
8ee	16b-	2r	2G
.	16cc	.	.
8ee	16b-	.	.
.	16cc	.	.
16ee	8b-	.	.
16gg	.	.	.
16ff	8b-	.	.
16ee	.	.	.
=20	=20	=20	=20
4ff	4a	4cc	4F
4r	4r	8a	4r
.	.	8f	.
=21	=21	=21	=21
8gg	2r	8e	2r
8gg	.	8c	.
16gg	.	8e	.
16bb-	.	.	.
16aa	.	8c	.
16gg	.	.	.
=22	=22	=22	=22
4aa	4cc	8f	2r
.	.	8c	.
4r	8a	8f	.
.	8f	8c	.
=23	=23	=23	=23
8bb	8ff	8d	2r
8bb	8dd	8d	.
16bb	8b	8d	.
16ddd	.	.	.
16ccc	8f	8d	.
16bb	.	.	.
=24	=24	=24	=24
4ccc	4e	4c	4C
4r	4r	4r	8GG
.	.	.	8EE
=25	=25	=25	=25
4bb-	4ff	4.F	2DD-
8ccc	8dd-	.	.
8ddd-	8b-	16G	.
.	.	16A-	.
=26	=26	=26	=26
4ff	2g	2B-	2CC
4ee	.	.	.
=27	=27	=27	=27
8bb-	4ff	4.F	2DD-
8bb-	.	.	.
8ccc	8dd-	.	.
8ddd-	8b-	16G	.
.	.	16A-	.
=28	=28	=28	=28
4ff	2g	2B-	2CC
4ee	.	.	.
=29	=29	=29	=29
16bb-	8ff	4.F	2DD-
16ccc	.	.	.
16ddd-	8ff	.	.
16ccc	.	.	.
16bb-	8dd-	.	.
16aa-	.	.	.
16gg	8b-	16G	.
16ff	.	16A-	.
=30	=30	=30	=30
2ff	[2g	[2B-	2CC
=31	=31	=31	=31
16ee	2g]	2B-]	2CC
16ff	.	.	.
16ee	.	.	.
16ff	.	.	.
16gg	.	.	.
16aa	.	.	.
16gg	.	.	.
16aa	.	.	.
=32	=32	=32	=32
8bb-	8B- 8e	8G	8C
16bb-	4B- 4e	4G	4C
16aa	.	.	.
8gg	.	.	.
16gg	8e 8B-	[8G	[8C
16ff	.	.	.
=33	=33	=33	=33
8ee	8B- 8e	8G]	8C]
16gg	4e 4B-	4G	4C
16ff	.	.	.
16ee	.	.	.
16dd	.	.	.
16cc	8B- 8e	8G	8C
16b-	.	.	.
=34	=34	=34	=34
4a	4cc	4A	8F
.	.	.	8AA
4r	8a	8r	8F
.	8f	8c	8A
=35	=35	=35	=35
4dd	4d	8c	8r
.	.	8B-	8BB-
8b-	4r	8r	8G
8g	.	8d	8B-
=36	=36	=36	=36
4e	4ee	8d	8r
.	.	8c	8C
4r	8cc	8r	8A
.	8a	8e	8c
=37	=37	=37	=37
4ff	4f	8e	8r
.	.	8d	8D
8dd	4r	8r	8B-
8b-	.	8f	8d
=38	=38	=38	=38
4gg	4g	8f	8r
.	.	8e	8E
8ee	8b-	8r	8c
8b-	8cc	8g	8e
=39	=39	=39	=39
16a	4a	4c	4f
16cc	.	.	.
16b	.	.	.
16cc	.	.	.
16ff	4r	4r	4r
16cc	.	.	.
16b	.	.	.
16cc	.	.	.
=40	=40	=40	=40
16cc	16f	4A 4f	4F
16ff	16a	.	.
16ee	16g#	.	.
16ff	16a	.	.
16aa	16cc	4r	4r
16ff	16a	.	.
16ee	16g#	.	.
16ff	16a	.	.
=41	=41	=41	=41
16ff	16a	4f 4A	4F
16aa	16ff	.	.
16gg#	16ee	.	.
16aa	16ff	.	.
16ccc	16aa	4r	4r
16aa	16ff	.	.
16gg#	16ee	.	.
16aa	16ff	.	.
=42	=42	=42	=42
16ccc	16aa	4f 4A	4F
16aa	16ff	.	.
16gg#	16ee	.	.
16aa	16ff	.	.
16ccc	16aa	4r	4r
16aa	16ff	.	.
16gg#	16ee	.	.
16aa	16ff	.	.
=43	=43	=43	=43
4ccc	4aa	4f 4A	4F
8r	8r	4r	4r
16aa	16ff	.	.
16bb-	16gg	.	.
=44	=44	=44	=44
8ccc	8aa	2r	2r
8aa	8ff	.	.
8ccc	8aa	.	.
8aa	8ff	.	.
=45	=45	=45	=45
4ccc	4aa	2r	2r
4r	4r	.	.
=46	=46	=46	=46
8r	4a	2F#	16d
.	.	.	16a
8ddd	.	.	16b-
.	.	.	16a
8ddd	8f#	.	16dd
.	.	.	16a
8ddd	8d	.	16b-
.	.	.	16a
=47	=47	=47	=47
4ddd	4b-	2G	16d
.	.	.	16b-
.	.	.	16cc
.	.	.	16b-
8bb-	4r	.	16dd
.	.	.	16b-
8gg	.	.	16cc
.	.	.	16b-
=48	=48	=48	=48
8r	4g	2E	16c
.	.	.	16g
8ccc	.	.	16a
.	.	.	16g
8ccc	8e	.	16cc
.	.	.	16g
8ccc	8c	.	16a
.	.	.	16g
=49	=49	=49	=49
4ccc	4a	2F	16c
.	.	.	16a
.	.	.	16b-
.	.	.	16a
8aa	4r	.	16cc
.	.	.	16a
8ff	.	.	16b-
.	.	.	16a
=50	=50	=50	=50
8r	4ff	16f	2d
.	.	16b	.
8fff	.	16a	.
.	.	16b	.
8fff	8dd	16dd	.
.	.	16b	.
8fff	8b	16a	.
.	.	16b	.
=51	=51	=51	=51
8fff	4f	16ff	2D
.	.	16b	.
8ddd	.	16a	.
.	.	16b	.
8bb	4r	16dd	.
.	.	16b	.
8ff	.	16a	.
.	.	16b	.
=52	=52	=52	=52
16ee	2g	16cc	2C
16cc	.	16e	.
16b	.	16d	.
16cc	.	16e	.
16gg	.	16c	.
16cc	.	16e	.
16b	.	16d	.
16cc	.	16e	.
=53	=53	=53	=53
16bb-	2e	16g	2C
16aa	.	16f	.
16gg	.	16e	.
16ff	.	16d	.
16ee	.	16c	.
16dd	.	16B-	.
16cc	.	16A	.
16b-	.	16G	.
=54	=54	=54	=54
8a	8f	4F	4F
8cc	8a	.	.
8dd	8b-	4r	4r
8ee	8g	.	.
=55	=55	=55	=55
8ff	8a	2r	2r
8gg	8e	.	.
8aa	8f	.	.
8bb-	8g	.	.
=56	=56	=56	=56
8ccc	8a	2r	2r
8aa	8f	.	.
8bb-	8g	.	.
8ccc	8a	.	.
=57	=57	=57	=57
8ddd	8b-	2r	2r
8eee	8cc	.	.
8fff	8dd	.	.
8ggg	8ee	.	.
=58	=58	=58	=58
2aaa	4ff	2r	2r
.	4r	.	.
=59	=59	=59	=59
2B	2B	2B	2BB
=60	=60	=60	=60
8c	8c	8c	8C
8f	8a	8f	8C
8a	8a	8f	8C
8cc	8a	8f	8C
=61	=61	=61	=61
8ff	8a	8f	8C
8aa	8a	8f	8C
8ccc	8a	8f	8C
8fff	8a	8f	8C
=62	=62	=62	=62
[2gg	4b-	[2e	8C
.	.	.	8C
.	8g	.	8C
.	8c	.	8C
=63	=63	=63	=63
2gg]	4b-	2e]	8C
.	.	.	8C
.	8g	.	8C
.	8c	.	8C
=64	=64	=64	=64
4ff	2b-	2f	8D-
.	.	.	8D-
8dd-	.	.	8D-
8b-	.	.	8D-
=65	=65	=65	=65
4gg-	2a	2e-	8C
.	.	.	8C
8ee-	.	.	8C
8cc	.	.	8C
=66	=66	=66	=66
4ff	2b-	2d-	8D-
.	.	.	8D-
8dd-	.	.	8D-
8b-	.	.	8D-
=67	=67	=67	=67
4ddd-	2ee	2G	8BB-
.	.	.	8BB-
8bb-	.	.	8BB-
8gg	.	.	8BB-
=68	=68	=68	=68
8ccc	8ff	4A	4AA
16aa	8r	.	.
16ff	.	.	.
8bb-	8dd	4B-	4BB-
16gg	8r	.	.
16dd	.	.	.
=69	=69	=69	=69
8aa	8cc	4c	4C
16ff	8r	.	.
16cc	.	.	.
8gg	8e	4c	4C
16ee	8r	.	.
16b-	.	.	.
=70	=70	=70	=70
4a	8f	4cc	4F
.	16c	.	.
.	16A	.	.
4r	8f	8a	4r
.	16c	8f	.
.	16A	.	.
=71	=71	=71	=71
4bb-	8e	4e	4F
.	16c	.	.
.	16B-	.	.
8gg	8e	4r	4r
8ee	16c	.	.
.	16B-	.	.
=72	=72	=72	=72
4ff	8f	4c	4FF
.	16c	.	.
.	16A	.	.
4r	8f	8A	4r
.	16c	8F	.
.	16A	.	.
=73	=73	=73	=73
4b-	8e	4E	4FF
.	16c	.	.
.	16B-	.	.
8g	8e	4r	4r
8e	16c	.	.
.	16B-	.	.
=74	=74	=74	=74
4f	4A	4F	4FF
4ff 4a	4cc 4a	4F	4FF
=75	=75	=75	=75
4ff 4a	4f 4a	4F	4FF
4r	4r	4r	4r
=76	=76	=76	=76
4aa-	2cc	2a-	2r
8ff	.	.	.
8dd	.	.	.
=77	=77	=77	=77
4b	2a-	[2f	4d
4r	.	.	8B
.	.	.	8A-
=78	=78	=78	=78
4ddd	2b	2f]	4G
8bb	.	.	4r
8gg	.	.	.
=79	=79	=79	=79
4ee-	4cc	4e-	4c
4r	4r	8c	8G
.	.	8G	8E-
=80	=80	=80	=80
4eee-	4ccc	4E-	4C
8ccc	8gg	4r	4r
8gg	8ee-	.	.
=81	=81	=81	=81
4ee-	4cc	4a	2r
4r	4r	8f#	.
.	.	8e-	.
=82	=82	=82	=82
4ff#	4a	4d	4d
8aa	8cc	4r	8A
8ccc	8a	.	8F#
=83	=83	=83	=83
4bb-	4b-	4G	4G
4r	4r	8B-	4r
.	.	8d	.
=84	=84	=84	=84
4b-	4g	4g	2r
8dd	8b-	4r	.
8gg	8dd	.	.
=85	=85	=85	=85
4bb-	4gg	4e-	2r
4r	4r	8B-	.
.	.	8G	.
=86	=86	=86	=86
4bb-	4c#	2E-	2r
8gg	4g	.	.
8cc#	.	.	.
=87	=87	=87	=87
4dd	4f#	4D	4D
4r	4r	4r	8AA
.	.	.	8FF#
=88	=88	=88	=88
4ccc	4gg	4.G	2EE-
8ddd	8ee-	.	.
8eee-	8cc	16A	.
.	.	16B-	.
=89	=89	=89	=89
4gg	2a	2c	2DD
4ff#	.	.	.
=90	=90	=90	=90
8ccc	4gg	4.G	2EE-
8ccc	.	.	.
8ddd	8ee-	.	.
8eee-	8cc	16A	.
.	.	16B-	.
=91	=91	=91	=91
4gg	2a	2c	2DD
4ff#	.	.	.
=92	=92	=92	=92
16ccc	[2cc	2g	2e-
16ddd	.	.	.
16eee-	.	.	.
16ddd	.	.	.
16ccc	.	.	.
16bb-	.	.	.
16aa	.	.	.
16gg	.	.	.
=93	=93	=93	=93
2gg	2cc_	[2a	[2d
=94	=94	=94	=94
2ff#	2cc]	2a]	2d_
=95	=95	=95	=95
[2ff	[2b	[2a-	4d]
.	.	.	4r
=96	=96	=96	=96
2ff_	2b_	2a-_	4d
.	.	.	8e-
.	.	.	8f
=97	=97	=97	=97
2ff_	2b_	2a-_	4c
.	.	.	4B
=98	=98	=98	=98
2ff_	2b_	2a-_	8B
.	.	.	8B
.	.	.	8c
.	.	.	8d
=99	=99	=99	=99
2ff]	4b]	2a-]	[2G
.	8cc	.	.
.	8dd	.	.
=100	=100	=100	=100
4ee-	4cc	4g	2G_
4dd	4b	4f	.
=101	=101	=101	=101
[2cc	4cc	[2e-	2G_
.	8g	.	.
.	8e-	.	.
=102	=102	=102	=102
8cc]	2c	2e-]	2G]
8cc	.	.	.
8dd	.	.	.
8ee-	.	.	.
=103	=103	=103	=103
4b-	[2e-	[2c	[2F
4a	.	.	.
=104	=104	=104	=104
8cc	2e-_	2c_	2F_
8cc	.	.	.
8dd	.	.	.
8ee-	.	.	.
=105	=105	=105	=105
4b-	2e-_	2c_	2F_
4a	.	.	.
=106	=106	=106	=106
16ee-	2e-_	2c_	2F_
16ff	.	.	.
16gg	.	.	.
16ff	.	.	.
16ee-	.	.	.
16dd	.	.	.
16cc	.	.	.
16b-	.	.	.
=107	=107	=107	=107
2b-	2e-]	2c]	2F]
=108	=108	=108	=108
32dd	2e-	2c	2F
32ee-	.	.	.
32dd	.	.	.
32ee-	.	.	.
32dd	.	.	.
32ee-	.	.	.
32dd	.	.	.
32ee-	.	.	.
32dd	.	.	.
32ee-	.	.	.
32ff	.	.	.
32ee-	.	.	.
16ee-	.	.	.
16ee	.	.	.
=109	=109	=109	=109
4ff	4d	4B-	4BB-
8dd	4r	4r	4r
8b-	.	.	.
=110	=110	=110	=110
8f	4r	4r	2r
8b-	.	.	.
8b-	[4b-	4g	.
8b-	.	.	.
=111	=111	=111	=111
8cc	4b-]	4e-	2r
8cc	.	.	.
8cc	4a	4f	.
8cc	.	.	.
=112	=112	=112	=112
4dd	8b-	4B-	8r
.	8dd	.	8B-
4bb-	8dd	4r	8B-
.	8dd	.	8B-
=113	=113	=113	=113
4bb-	8ee-	2r	8c
.	8ee-	.	8c
4aa	8ee-	.	8c
.	8ee-	.	8c
=114	=114	=114	=114
2aa-	[2ff	2r	16d
.	.	.	16e-
.	.	.	16d
.	.	.	16c
.	.	.	16B-
.	.	.	16c
.	.	.	16d
.	.	.	16B-
=115	=115	=115	=115
8gg	4ff]	8r	4e-
8gg	.	8e-	.
8gg	[4ee-	8e-	4r
8gg	.	8e-	.
=116	=116	=116	=116
8aa-	4ee-]	8f	2r
8aa-	.	8f	.
8aa-	4dd	8f	.
8aa-	.	8f	.
=117	=117	=117	=117
[2bb-	2dd-	16g	2r
.	.	16a-	.
.	.	16g	.
.	.	16f	.
.	.	16e-	.
.	.	16f	.
.	.	16g	.
.	.	16e-	.
=118	=118	=118	=118
4bb-]	2cc	4a-	16AA-
.	.	.	16BB-
.	.	.	16AA-
.	.	.	16GG
4aa-	.	4r	16FF
.	.	.	16GG
.	.	.	16FF
.	.	.	16EE-
=119	=119	=119	=119
[2aa-	[2b-	8r	8DD
.	.	8f	8FF
.	.	8d	8BB-
.	.	8B-	8D
=120	=120	=120	=120
4aa-]	2b-]	16e-	4E-
.	.	16f	.
.	.	16g	.
.	.	16f	.
4gg	.	16e-	4r
.	.	16f	.
.	.	16e-	.
.	.	16d	.
=121	=121	=121	=121
[2gg	[2a-	8c	2r
.	.	8e-	.
.	.	8a-	.
.	.	8cc	.
=122	=122	=122	=122
4gg]	2a-]	4d	16D
.	.	.	16E-
.	.	.	16F
.	.	.	16E-
4ff	.	4r	16D
.	.	.	16E-
.	.	.	16D
.	.	.	16C
=123	=123	=123	=123
16ff	[2g	2r	8BB
16ee-	.	.	.
16dd	.	.	8D
16cc	.	.	.
16b	.	.	8G
16a-	.	.	.
16g	.	.	8B
16f	.	.	.
=124	=124	=124	=124
4e-	8g]	4r	4c
.	8cc	.	.
4r	8cc	[4cc	4a-
.	8cc	.	.
=125	=125	=125	=125
2r	8dd	4cc]	4f#
.	8dd	.	.
.	8dd	4b	4g
.	8dd	.	.
=126	=126	=126	=126
2r	16ee-	[2cc	8CC
.	16ff	.	.
.	16ee-	.	8c
.	16dd	.	.
.	16cc	.	8c
.	16dd	.	.
.	16ee-	.	8c
.	16cc	.	.
=127	=127	=127	=127
2r	16ff	4cc]	8d
.	16gg	.	.
.	16ff	.	8d
.	16ee-	.	.
.	16dd	4b	8d
.	16ee-	.	.
.	16ff	.	8d
.	16dd	.	.
=128	=128	=128	=128
2r	2gg	2b-	16e
.	.	.	16f
.	.	.	16e
.	.	.	16d
.	.	.	16c
.	.	.	16d
.	.	.	16e
.	.	.	16c
=129	=129	=129	=129
4ccc	4aa-	4a-	4f
8aa-	4r	4r	4r
8ff	.	.	.
=130	=130	=130	=130
4ee	4dd-	4b-	2r
4r	8b-	8g	.
.	8g	8e	.
=131	=131	=131	=131
4ccc	4a-	4f	2r
8aa-	4r	4r	.
8ff	.	.	.
=132	=132	=132	=132
4dd	4cc-	4a-	2r
4r	8a-	8f	.
.	8f	8d	.
=133	=133	=133	=133
4bb-	4g	4e-	4EE-
8gg	4r	4r	8GG
8ee-	.	.	8BB-
=134	=134	=134	=134
8b-	4r	4r	8E-
8ee-	.	.	16G
.	.	.	16F
8ee-	4e-	4g	16E-
.	.	.	16D
8ee-	.	.	16C
.	.	.	16BB-
=135	=135	=135	=135
8ff	4e-	4cc	8AA-
8ff	.	.	16BB-
.	.	.	16C
8ff	4d	8a-	16BB-
.	.	.	16AA-
8ff	.	8d	16GG
.	.	.	16FF
=136	=136	=136	=136
8gg	8e-	16e-	4EE-
.	.	16b-	.
8gg	8e-	16cc	.
.	.	16b-	.
8gg	8e-	16ee-	4r
.	.	16b-	.
8gg	8e-	16cc	.
.	.	16b-	.
=137	=137	=137	=137
8aa-	8f	16f	2r
.	.	16b-	.
8aa-	8f	16cc	.
.	.	16b-	.
8aa-	8f	16dd	.
.	.	16b-	.
8aa-	8f	16cc	.
.	.	16b-	.
=138	=138	=138	=138
4bb-	4g	8e-	16GG
.	.	.	16E-
.	.	8G	16D
.	.	.	16E-
8gg	4r	8G	16B-
.	.	.	16E-
8ee-	.	8G	16D
.	.	.	16E-
=139	=139	=139	=139
4cc	4ee-	8r	16AA-
.	.	.	16E-
.	.	8A-	16D
.	.	.	16E-
4r	8cc	8A-	16c
.	.	.	16E-
.	8a-	8A-	16D
.	.	.	16E-
=140	=140	=140	=140
4ccc	4f	8r	16AA
.	.	.	16F
.	.	8A	16E
.	.	.	16F
8aa	4r	8A	16c
.	.	.	16F
8ff	.	8A	16E
.	.	.	16F
=141	=141	=141	=141
4dd	4ff	8r	16BB-
.	.	.	16F
.	.	8B-	16E
.	.	.	16F
4r	8dd	8B-	16d
.	.	.	16F
.	8b-	8B-	16E
.	.	.	16F
=142	=142	=142	=142
4ddd	4g	8r	16BB
.	.	.	16G
.	.	8B	16F#
.	.	.	16G
8bb	4r	8B	16d
.	.	.	16G
8gg	.	8B	16F#
.	.	.	16G
=143	=143	=143	=143
4ee-	4gg	8r	16C
.	.	.	16G
.	.	8c	16F#
.	.	.	16G
4r	8ee-	8c	16e-
.	.	.	16G
.	8cc	8c	16F#
.	.	.	16G
=144	=144	=144	=144
4eee-	8a-	8e-	8C
.	4a-	4e-	8C
8ccc	.	.	8C
8aa-	[8a-	[8e-	8C
=145	=145	=145	=145
8ee-	8a-]	8e-]	8C
8ccc	4a-	4e-	8C
8aa-	.	.	8C
8gg	8a-	8e-	8C
=146	=146	=146	=146
8ff#	8a 8e-	8f#	8C
8eee-	4e- 4a	4f#	8C
8ccc	.	.	8C
8aa	[8a 8e-	[8f#	8C
=147	=147	=147	=147
8ff#	8a 8e-]	8f#]	8C
8ee-	4e- 4a	4f#	8C
8cc	.	.	8C
8a	8e- 8a	8f#	8C
=148	=148	=148	=148
8g	8g	8g	8BB-
8ddd	4g	4d	8BB-
8bb-	.	.	8BB-
8gg	[8g	[8d	8BB-
=149	=149	=149	=149
8dd	8g]	8d]	8BB-
8b-	4g	4d	8BB-
8g	.	.	8BB-
8f	8g	8d	8BB-
=150	=150	=150	=150
8e	8d- 8e	8g	8BB-
8ddd-	4d- 4e	4g	8BB-
8bb-	.	.	8BB-
8gg	[8e 8d-	[8g	8BB-
=151	=151	=151	=151
8ee	8e 8d-]	8g]	8BB-
8dd-	4e 4d-	4g	8BB-
8b-	.	.	8BB-
8g	8d- 8e	8g	8BB-
=152	=152	=152	=152
8f	8f 8c	8f	8AA
8ccc	4f 4c	4f	8AA
8aa	.	.	8AA
8ff	[8f 8c	8f	8AA
=153	=153	=153	=153
8ee-	8f 8c]	8ee-	8AA
8ccc	4f 4c	4ee-	8AA
8aa	.	.	8AA
8ee-	8c 8f	8a	8AA
=154	=154	=154	=154
8dd	8f 8d	8b-	8BB-
8bb-	4f 4d	4b-	8BB-
8ff	.	.	8BB-
8dd	8f 8d	8f	8BB-
=155	=155	=155	=155
8b-	8b-	8e	8GG
8bb-	4b-	4e	8GG
8gg	.	.	8GG
8ee	8b-	8g	8GG
=156	=156	=156	=156
4ff	8a	8c	4FF
.	8a	8c	.
8cc	8a	8c	4r
8a	8a	8c	.
=157	=157	=157	=157
4ff	8b-	8d	2r
.	8b-	8d	.
8dd	8b-	8d	.
8b-	8b-	8d	.
=158	=158	=158	=158
4ff	8cc	8e-	4FF
.	8cc	8e-	.
8ee-	8cc	8e-	4r
8cc	16dd	16f	.
.	16cc	16e-	.
=159	=159	=159	=159
4ff	8b-	8d	2r
.	8b-	8d	.
8dd	8b-	8d	.
8b-	16cc	16e-	.
.	16b-	16d	.
=160	=160	=160	=160
4ff	8a	8c	4FF
.	8a	8c	.
8cc	8a	8c	4r
8a	8a	8c	.
=161	=161	=161	=161
4ff	8b-	8d	2r
.	8b-	8d	.
8dd	8b-	8d	.
8b-	8b-	8d	.
=162	=162	=162	=162
4.ff	4cc	4e-	4AA
.	4r	4r	4r
8ff	.	.	.
=163	=163	=163	=163
8ee	2r	2r	2r
8ff	.	.	.
8gg	.	.	.
8ff	.	.	.
=164	=164	=164	=164
4ff	8r	8r	4BB-
.	8B-	8D	.
8dd	8d	8B-	4r
8b-	8f	8d	.
=165	=165	=165	=165
8f	8r	8r	4BB-
8b-	8B-	8D	.
8b-	8d	8B-	4r
8b-	8f	8d	.
=166	=166	=166	=166
8cc	8r	8r	4F
8cc	8c	8A	.
8cc	8e-	8c	4r
8cc	8a	8e-	.
=167	=167	=167	=167
16dd	8r	8r	4BB-
16ee-	.	.	.
16dd	8d	8B-	.
16cc	.	.	.
16b-	8f	8d	4r
16cc	.	.	.
16dd	8d	8B-	.
16ee-	.	.	.
=168	=168	=168	=168
4ff	8r	8r	4BB-
.	8B-	8D	.
8dd	8d	8B-	4r
8b-	8f	8d	.
=169	=169	=169	=169
8f	8r	8r	4B-
8b-	8B-	8D	.
8b-	8d	8B-	4r
8b-	8f	8d	.
=170	=170	=170	=170
8cc	8r	8r	4F
8cc	8c	8A	.
16cc	8e-	8c	4r
16ee-	.	.	.
16dd	8a	8e-	.
16cc	.	.	.
=171	=171	=171	=171
4b-	8b-	4d	4BB-
.	8f	.	.
4r	8b-	4r	4r
.	8dd	.	.
=172	=172	=172	=172
2r	4ff	8r	8r
.	.	8D	8BB-
.	8dd	8F	8D
.	8b-	8B-	8F
=173	=173	=173	=173
8r	8f	2d	4B-
8bb-	8b-	.	.
8bb-	8b-	.	4G
8bb-	8b-	.	.
=174	=174	=174	=174
16bb-	8cc	2e-	2F
16ccc	.	.	.
16bb-	8cc	.	.
16ccc	.	.	.
8aa	8cc	.	.
8ff	8cc	.	.
=175	=175	=175	=175
4ddd	16dd	4d	4BB-
.	16ee-	.	.
.	16dd	.	.
.	16cc	.	.
4r	16b-	4r	4r
.	16cc	.	.
.	16dd	.	.
.	16ee-	.	.
=176	=176	=176	=176
2r	4ff	8r	8r
.	.	8D	8BB-
.	8dd	8F	8D
.	8b-	8B-	8F
=177	=177	=177	=177
8r	8f	2d	4B-
8bb-	8b-	.	.
8bb-	8b-	.	4G
8bb-	8b-	.	.
=178	=178	=178	=178
16bb-	8cc	2e-	2F
16ccc	.	.	.
16bb-	8cc	.	.
16ccc	.	.	.
8aa	16cc	.	.
.	16ee-	.	.
8ff	16dd	.	.
.	16cc	.	.
=179	=179	=179	=179
4bb-	4b-	4d	4BB-
4r	4r	4r	4r
=180	=180	=180	=180
8cc	2a 2e-	2f	2r
8cc	.	.	.
16cc	.	.	.
16ee-	.	.	.
16dd	.	.	.
16cc	.	.	.
=181	=181	=181	=181
4b-	4b- 4d	4d	4f
4r	4r	4r	8d
.	.	.	8B-
=182	=182	=182	=182
8ee	16b-	2r	2G
.	16cc	.	.
8ee	16b-	.	.
.	16cc	.	.
16ee	8b-	.	.
16gg	.	.	.
16ff	8b-	.	.
16ee	.	.	.
=183	=183	=183	=183
4ff	4a	2r	4F
4r	4r	.	8C
.	.	.	8AA
=184	=184	=184	=184
4ee-	4b-	4.B-	2GG-
8ff	8g-	.	.
8gg-	8e-	16c	.
.	.	16d-	.
=185	=185	=185	=185
4b-	2c	2e-	2FF
4a	.	.	.
=186	=186	=186	=186
8ee-	4b-	4.B-	2GG-
8ee-	.	.	.
8ff	8g-	.	.
8gg-	8e-	16c	.
.	.	16d-	.
=187	=187	=187	=187
4b-	2c	2e-	2FF
4a	.	.	.
=188	=188	=188	=188
16ee-	8b-	4.B-	2GG-
16ff	.	.	.
16gg-	8b-	.	.
16ff	.	.	.
16ee-	8g-	.	.
16dd-	.	.	.
16cc	8e-	16c	.
16b-	.	16d-	.
=189	=189	=189	=189
2b-	[2c	[2e-	2FF
=190	=190	=190	=190
16a	2c]	2e-]	[2FF
16b-	.	.	.
16a	.	.	.
16b-	.	.	.
16cc	.	.	.
16dd	.	.	.
16cc	.	.	.
16dd	.	.	.
=191	=191	=191	=191
8ee-	8a 8e-	8c	8FF]
16ee-	4a 4e-	4c	4FF
16dd	.	.	.
8cc	.	.	.
16cc	[8e- 8a	[8c	[8FF
16b-	.	.	.
=192	=192	=192	=192
8a	8e- 8a]	8c]	8FF]
16cc	4a 4e-	4c	4FF
16b-	.	.	.
16a	.	.	.
16g	.	.	.
16f	8e- 8a	8c	8FF
16e-	.	.	.
=193	=193	=193	=193
4d	4ff	4d	8BB-
.	.	.	8D
4r	8dd	8r	8B-
.	8b-	[8f	8D
=194	=194	=194	=194
4gg	4g	8f]	8r
.	.	8e-	8E-
8ee-	4r	8r	8c
8cc	.	[8g	8E-
=195	=195	=195	=195
4a	4aa	8g]	8r
.	.	8f	8F
4r	8ff	8r	8d
.	8dd	[8a	8F
=196	=196	=196	=196
4bb-	4b-	8a]	8r
.	.	8g	8G
8gg	4r	8r	8e-
8ee-	.	[8b-	8G
=197	=197	=197	=197
4ccc	8r	8b-]	8r
.	8ee-	8a	8A
8aa	8cc	8r	8f
8ee-	8f	8cc	8A
=198	=198	=198	=198
16dd	4b-	4f	4B-
16ff	.	.	.
16ee	.	.	.
16ff	.	.	.
16bb-	4r	4r	4r
16ff	.	.	.
16ee	.	.	.
16ff	.	.	.
=199	=199	=199	=199
16ff	16b-	4b- 4d	4B-
16bb-	16dd	.	.
16aa	16cc#	.	.
16bb-	16dd	.	.
16ddd	16ff	4r	4r
16bb-	16dd	.	.
16aa	16cc#	.	.
16bb-	16dd	.	.
=200	=200	=200	=200
16bb-	16dd	4d 4b-	4B-
16ddd	16bb-	.	.
16ccc#	16aa	.	.
16ddd	16bb-	.	.
16fff	16ddd	4r	4r
16ddd	16bb-	.	.
16ccc#	16aa	.	.
16ddd	16bb-	.	.
=201	=201	=201	=201
16fff	16ddd	4b- 4d	4B-
16ddd	16bb-	.	.
16ccc#	16aa	.	.
16ddd	16bb-	.	.
16fff	16ddd	4r	4r
16ddd	16bb-	.	.
16ccc#	16aa	.	.
16ddd	16bb-	.	.
=202	=202	=202	=202
4fff	4ddd	4d 4b-	4B-
8r	8r	4r	4r
16ddd	16bb-	.	.
16eee-	16ccc	.	.
=203	=203	=203	=203
8fff	8ddd	2r	2r
16ddd	16bb-	.	.
16eee-	16ccc	.	.
8fff	8ddd	.	.
16ddd	16bb-	.	.
16eee-	16ccc	.	.
=204	=204	=204	=204
4fff	4ddd	2r	2r
4r	4r	.	.
=205	=205	=205	=205
2A-	2B-	2F	2DD
=206	=206	=206	=206
8G	8B-	8G	8EE-
8B-	4B-	4G	8EE-
8e-	.	.	8EE-
8g	[8B-	[8G	8EE-
=207	=207	=207	=207
8b-	8B-]	8G]	8EE-
8ee-	4B-	4G	8EE-
8gg	.	.	8EE-
8bb-	8B-	8G	8EE-
=208	=208	=208	=208
8d-	8g 8B-	8d-	8EE
8e	4B- 4g	4d-	8EE
8g	.	.	8EE
8b-	[8g 8B-	[8d-	8EE
=209	=209	=209	=209
8dd-	8g 8B-]	8d-]	8EE
8ee	4B- 4g	4d-	8EE
8gg	.	.	8EE
8bb-	8B- 8g	8d-	8EE
=210	=210	=210	=210
8f	8d	8d	8FF
8b-	4b-	4d	8FF
8dd	.	.	8FF
8ff	[8b-	[8d	8FF
=211	=211	=211	=211
8bb-	8b-]	8d]	8FF
8ddd	4b-	4d	8FF
8fff	.	.	8FF
8bb-	8b-	[8b-	8FF
=212	=212	=212	=212
[2ccc	4ee-	8b-]	8FF
.	.	4b-	8FF
.	8cc	.	8FF
.	8f	8b-	8FF
=213	=213	=213	=213
2ccc]	4ee-	8a	8FF
.	.	4a	8FF
.	8cc	.	8FF
.	8f	8a	8FF
=214	=214	=214	=214
4bb-	4e	8g	8GG
.	.	4g	8GG
8gg	8g	.	8GG
8ee	8b-	8g	8GG
=215	=215	=215	=215
4ccc	4e-	8f	8AA
.	.	4f	8AA
8aa	8a	.	8AA
8ee-	8cc	8f	8AA
=216	=216	=216	=216
8bb-	8dd	8f	4BB-
16ff	8r	8r	.
16dd	.	.	.
8gg	8ee-	8e-	4E-
16ee-	8r	8r	.
16cc	.	.	.
=217	=217	=217	=217
8ff	8dd	8f	4F
16dd	8r	8r	.
16b-	.	.	.
8ee-	8cc	8f	4FF
16cc	8r	8r	.
16a	.	.	.
=218	=218	=218	=218
4b-	8b-	4f	4BB-
.	16f	.	.
.	16d	.	.
4r	8b-	8d	4r
.	16f	8B-	.
.	16d	.	.
=219	=219	=219	=219
4ee-	8a	4A	4BB-
.	16f	.	.
.	16e-	.	.
8cc	8a	4r	4r
8a	16f	.	.
.	16e-	.	.
=220	=220	=220	=220
4b-	8b-	8d	4BB-
.	16f	8f	.
.	16d	.	.
4r	8b-	8d	4r
.	16f	8B-	.
.	16d	.	.
=221	=221	=221	=221
4ee-	8a	4c	4BB-
.	16f	.	.
.	16e-	.	.
8cc	8a	8e-	4r
8a	16f	8f	.
.	16e-	.	.
=222	=222	=222	=222
4b-	4d	4d	4BB-
4r	4r	4r	4r
=223	=223	=223	=223
2r	2r	2r	2r
=224	=224	=224	=224
2r	2r	2r	2r
=225	=225	=225	=225
8r	2r	2r	2r
8f	.	.	.
8b-	.	.	.
8dd	.	.	.
=226	=226	=226	=226
4ff	8r	8r	4BB-
.	8B-	8D	.
8dd	8d	8B-	4r
8b-	8f	8d	.
=227	=227	=227	=227
8f	8r	8r	4BB-
8b-	8B-	8D	.
8b-	8d	8B-	4r
8b-	8f	8d	.
=228	=228	=228	=228
8cc	8r	8r	4F
8cc	8c	8A	.
8cc	8e-	8c	4r
8cc	8a	8e-	.
=229	=229	=229	=229
16dd	8r	8r	4BB-
16ee-	.	.	.
16dd	8d	8B-	.
16cc	.	.	.
16b-	8f	8d	4r
16cc	.	.	.
16dd	8d	8B-	.
16ee-	.	.	.
=230	=230	=230	=230
4ff	8r	8r	4BB-
.	8B-	8D	.
8dd	8d	8B-	4r
8b-	8f	8d	.
=231	=231	=231	=231
8f	8r	8r	4B-
8b-	8B-	8D	.
8b-	8d	8B-	4r
8b-	8f	8d	.
=232	=232	=232	=232
8cc	8r	8r	4F
8cc	8c	8A	.
16cc	8e-	8c	4r
16ee-	.	.	.
16dd	8f	8e-	.
16cc	.	.	.
=233	=233	=233	=233
4b-	4d	4d	4BB-
4r	4r	4r	4r
=234	=234	=234	=234
4eee-	8cc	4A	4F
.	8cc	.	.
8ccc	16cc	8c	4r
.	16ee-	.	.
8aa	16dd	8e-	.
.	16cc	.	.
=235	=235	=235	=235
4fff	8b-	16d	4BB-
.	.	16e-	.
.	8d	16d	.
.	.	16c	.
8ddd	8f	8B-	4r
8bb-	8b-	8r	.
=236	=236	=236	=236
4eee-	8cc	4A	4F
.	8cc	.	.
8ccc	16cc	8c	4r
.	16ee-	.	.
8aa	16dd	8e-	.
.	16cc	.	.
=237	=237	=237	=237
4bb-	4b-	4d	4BB-
4r	4r	4r	4r
=238	=238	=238	=238
8cc	4ee-	4A	4F
8cc	.	.	.
16cc	8cc	8c	4r
16ee-	.	.	.
16dd	8a	8e-	.
16cc	.	.	.
=239	=239	=239	=239
8b-	4ff	16d	4BB-
.	.	16e-	.
8d	.	16d	.
.	.	16c	.
8f	8dd	8B-	4r
8b-	8b-	8r	.
=240	=240	=240	=240
8cc	4ee-	4A	4F
8cc	.	.	.
16cc	8cc	8c	4r
16ee-	.	.	.
16dd	8a	8e-	.
16cc	.	.	.
=241	=241	=241	=241
4b-	4b-	4d	4BB-
4r	4r	4r	4r
=242	=242	=242	=242
4ee-	4A	8c	4F
.	.	8c	.
8cc	8c	16c	4r
.	.	16e-	.
8a	8e-	16d	.
.	.	16c	.
=243	=243	=243	=243
4b-	4d	4B-	4BB-
4r	4r	4r	4r
=244	=244	=244	=244
4aa 4cc 4f	4ee- 4f 4A	4e- 4a 4c	16FF
.	.	.	16GG
.	.	.	16AA
.	.	.	16BB-
4r	4r	4r	16C
.	.	.	16D
.	.	.	16E-
.	.	.	16F
=245	=245	=245	=245
4bb- 4b- 4d	4dd 4f 4B-	4f 4b- 4B-	4BB-
4r	4r	4r	4r
==	==	==	==
*-	*-	*-	*-
!!!RWG1: This file contains only pitch and duration data.
!!!RWG2: Transposing instruments are not transposed.
!!!RWG3: Spines may have incompatible meters.
!!!RWG4: Durations of rests and tied notes may be interpreted.
!!!RWG: Key is interpreted using the Humdrum key tool.
!!!GTL: 6 Quartetti ("Prussian")
!!!AFT: stage1
!!!END: 1997/04/15
!!format changes:
!!content changes:
!!public access: complete
!!!KEY: 3843015844
!!!EMD: Converted from MuseData to Humdrum Dec 16, 2000, by Andreas Kornstaedt using muse2kern.
